!!!!SEGMENT: pl-wn--sd-xvi-o-260_anonim--kancjonal-zamoyskich-przykazanie-boze-wszelki-co-zadasz-zbawienia.krn
!!!cenid: 15xx:817
!!!COM: Anonim
!!!COM-rismid: pe30004985
!!!CDT:
!!!CNT:
!!!OTL: Kancjonał Zamoyskich
!!!PDT: 1558
!!!AGN:
!!!SMS-siglum: PL-Wn
!!!SMS-shelfmark: SD XVI.O.260
!!!SMS-shelfwork: W
!!!SMS-variant:
!!!SMS-altvar:
!!!NIFC-rismid: 990072215
!!!URL-scan: https://polona.pl/item/przykazanie-boze-s-thymi-blogoslawienstwy-y-przeklectwy-ktore-sa-napisane-w-piatych,MTE3MTI1MQ/3/#info:metadata
!!!ONB-nifc: UWAGA: proszę zapisywać tylko teksty występujące bezpośrednio pod nutami
!!!key: d:dor
**kern	**kern	**text	**kern	**kern
*part4	*part3	*part3	*part2	*part1
*staff4	*staff3	*staff3	*staff2	*staff1
*I"[BAS.]	*I"TENOR.	*	*I"[ALT.]	*I"[CANTVS.]
*I'B	*I'T	*	*I'A	*I'S
*Ibass	*Itenor	*	*Ialto	*Isoprn
*ICvox	*ICvox	*	*ICvox	*ICvox
*clefF4	*clefC1	*	*clefC3	*clefC1
*k[]	*k[]	*	*k[]	*k[]
*d:dor	*d:dor	*	*d:dor	*d:dor
*M2/1	*M2/1	*	*M2/1	*M2/1
*met(C|)	*met(C|)	*	*met(C|)	*met(C|)
=1-	=1-	=1-	=1-	=1-
!!LO:TX:t=P:problem:na karcie tytułowej ręcznie dopisany fragment nut w kluczu basowym - nie pasuje on ani jako początek, ani jako zakończenie tej pieśni. Na karcie z głosem tenoru też dwie pięciolinie z nutami, ale początek karty urwany, więc nie widać klucza i ciężko ocenić jaka to partia i czy pasuje do drukowanego tenoru.
!	!LO:TX:t=P:problem:znak przykluczowy cc-	!	!	!
0ryy	1d	Wſzel-	0ryy	0ryy
.	1d	-ki	.	.
=2-	=2-	=2-	=2-	=2-
0ryy	0d	co	0ryy	0ryy
=3-	=3-	=3-	=3-	=3-
0ryy	0a	żą-	0ryy	0ryy
=4-	=4-	=4-	=4-	=4-
0ryy	1b	-daſz	0ryy	0ryy
.	1cc	zbá-	.	.
=5-	=5-	=5-	=5-	=5-
0ryy	0b	-wie-	0ryy	0ryy
=6-	=6-	=6-	=6-	=6-
0ryy	0a	-nia/	0ryy	0ryy
*	*custos:g	*	*	*
=7-	=7-	=7-	=7-	=7-
!	!LO:LB:g=original	!	!	!
0ryy	1g	ſlu-	0ryy	0ryy
.	1a	-chay	.	.
=8-	=8-	=8-	=8-	=8-
0ryy	0b	the-	0ryy	0ryy
=9-	=9-	=9-	=9-	=9-
0ryy	0a	-go	0ryy	0ryy
=10-	=10-	=10-	=10-	=10-
0ryy	1a	przy-	0ryy	0ryy
.	1f	-ka-	.	.
=11-	=11-	=11-	=11-	=11-
0ryy	0g	-zá-	0ryy	0ryy
=12-	=12-	=12-	=12-	=12-
0ryy	0f	-nya/	0ryy	0ryy
=13-	=13-	=13-	=13-	=13-
0ryy	1r	.	0ryy	0ryy
*	*custos:f	*	*	*
!	!LO:LB:g=original	!	!	!
.	1f	Kto-	.	.
=14-	=14-	=14-	=14-	=14-
0ryy	1f	-re	0ryy	0ryy
.	1f	to-	.	.
=15-	=15-	=15-	=15-	=15-
0ryy	0g	-bie	0ryy	0ryy
=16-	=16-	=16-	=16-	=16-
0ryy	1g	Pan	0ryy	0ryy
.	1f	Bog	.	.
=17-	=17-	=17-	=17-	=17-
0ryy	0g	wy-	0ryy	0ryy
=18-	=18-	=18-	=18-	=18-
0ryy	0a	-dał/	0ryy	0ryy
*	*custos:a	*	*	*
=19-	=19-	=19-	=19-	=19-
!	!LO:LB:g=original	!	!	!
0ryy	1a	a-	0ryy	0ryy
.	1a	-bys	.	.
=20-	=20-	=20-	=20-	=20-
0ryy	0a	ie	0ryy	0ryy
=21-	=21-	=21-	=21-	=21-
0ryy	0g	peł-	0ryy	0ryy
=22-	=22-	=22-	=22-	=22-
0ryy	1g	-nił	0ryy	0ryy
.	1d	przy-	.	.
=23-	=23-	=23-	=23-	=23-
0ryy	0e	-ka-	0ryy	0ryy
=24-	=24-	=24-	=24-	=24-
0ryy	0dl/	-zał.	0ryy	0ryy
==	==	==	==	==
*-	*-	*-	*-	*-
!!!system-decoration: [(s1,s2,s3,s4)]
!!!RDF**kern: > = above
!!!RDF**kern: < = below
!!!RDF**kern: l = terminal long
!!!ENC: Katarzyna Serwa
!!!END: 2022-05-04
!!!AIN: 1 alto 1 bass 1 soprn 1 tenor
!!!ENC: Mateusz Solarz
!!!END: 2022-04-26
